X: 1
T: Fiddle Hell Reel
C: Andrea Beaton
R: reel
S: Fiddle Hell Online 2021-11-04
Z: 2021 John Chambers <jc:trillian.mit.edu>
M: 4/4
L: 1/8
K: D
|:\
"D"agfe dAAd | "Em"BABd "A"e2e2 | "D"agfe dAAd | "A"BdAF "D"D/D/D D2 |
"D"agfe dAAd | "Bm"BABd "A"e2ef | "G"gafg "D/F#"efdA | "A/E"Bdce "D"d/d/d df :|
|:\
"Em"e2-ef gfeg | "D"f2-fg agfd | "Em"e2-ef "A"gfed | "A7"Bdce "D"d/d/d df |
"Em"e2-ef gfeg | "D"f2-fg agfa | "G"gafg "A"efdA | "A7"Bdce "D"d/d/d df :|
